!!!COA:	des Prez, Josquin
!!!CDT:	~1450-1521/08/27
!!!OPR:	Missa Allez regrets II
!!!ONM:	2
!!!OTL:	Gloria
!!!AGN:	Mass; Gloria
!!!SCT:	NJE 7.2
!!!SCA:	New Josquin Edition 7.2
!!!voices:	4
**kern	**kern	**kern	**kern
*part4	*part3	*part2	*part1
*staff4	*staff3	*staff2	*staff1
*Ivox	*Ivox	*Ivox	*Ivox
*I"Bassus	*I"Tenor	*I"Contratenor	*I"Superius
*I'B	*I'T	*I'Ct	*I'S
*>[A,B]	*>[A,B]	*>[A,B]	*>[A,B]
*>A	*>A	*>A	*>A
*clefF4	*clefGv2	*clefGv2	*clefG2
*k[b-]	*k[b-]	*k[b-]	*k[b-]
*d:	*d:	*d:	*d:
*M2/1	*M2/1	*M2/1	*M2/1
*met(C|)	*met(C)	*met(C|)	*met(C|)
*	*rscale:1/2	*	*
=1	=1	=1	=1
!!section: Et in terra pax
!!!OMD: Et in terra pax
!	!LO:N:vis=0	!	!
0C	[y0c	0G	1.c
.	.	.	2d
=2	=2-	=2	=2
1C	0c]yy	1G	1e
[1F	.	1A	1f
=3	=3	=3	=3
!	!LO:N:vis=0	!	!
2F]	[y0c	0G	1.g
4E	.	.	.
4D	.	.	.
1E	.	.	.
.	.	.	4f
.	.	.	4g
=4	=4-	=4	=4
0F	0c]yy	1F	0a
.	.	1f	.
=5	=5	=5	=5
1C	0c	1e	1r
1C	.	1e	[1g
=6	=6-	=6	=6
1D	0A	0d	2g]
.	.	.	4f
.	.	.	4e
1D	.	.	2f
.	.	.	4g
.	.	.	4a
=7	=7	=7	=7
*	*M2/1	*	*
*	*met(C|)	*	*
*	*rscale:1	*	*
0GG	2G	1.d	1b-
.	1B-	.	.
.	.	.	1b-
.	4A	2e	.
.	4G	.	.
=8	=8	=8	=8
*	*M2/1	*	*
*	*met(2)	*	*
*	*rscale:2	*	*
1D	2F	1f	1a
.	2F	.	.
=-	=	=-	=-
*	*M2/1	*	*
*	*met(C|)	*	*
1GG	1G	1d	2g
.	.	.	[2g
=9	=9	=9	=9
*	*M2/1	*	*
*	*met(C)	*	*
*	*rscale:1/2	*	*
0G	0B-	2r	2g]
.	.	1d	4f
.	.	.	4e
.	.	.	2d
.	.	2e	[2g
=10	=10	=10	=10
*	*M2/1	*	*
*	*met(C|2)	*	*
*	*rscale:2	*	*
1D	2A	2f	2g]
.	2A	1d	1f
1G	2.G	.	.
.	.	4c	2e
.	8AL	4B-	.
.	8B-J	.	.
=11	=11	=11	=11
*	*M2/1	*	*
*	*met(C.)	*	*
*	*rscale:1/2	*	*
!	!LO:N:vis=1.	!	!
0F	[y0c	1A	1f
.	.	4A	1a
.	.	4B-	.
.	.	4c	.
.	.	4d	.
=12	=12-	=12	=12
1C	1c]yy	2e	2g
.	.	[2g	4f
.	.	.	4e
=-	=	=-	=-
*	*M2/1	*	*
*	*met(C|)	*	*
*	*rscale:1	*	*
1G	[1B-	4g]	1d
.	.	4f	.
.	.	[2d	.
=13	=13	=13	=13
2.GG	2B-]	4d]	2r
.	.	4c	.
.	4A	2.B-	1d
4AA	4G	.	.
2BB-	2F	.	.
.	.	4A	.
2C	2E	2G	[2g
=14	=14	=14	=14
2D	2F	1d	2g]
2F	2A	.	1f
1C	1G	1c	.
.	.	.	2e
=15	=15	=15	=15
*	*M2/1	*	*
*	*met(C)	*	*
*	*rscale:1/2	*	*
0D	[0F	2r	1f
.	.	2A	.
.	.	2A	2r
.	.	2A	2a
=16	=16-	=16	=16
2r	0F_	2F	2a
2D	.	2A	2a
2D	.	2A	1f
2D	.	2A	.
=17	=17	=17	=17
1BB-	0F_	2B-	1d
.	.	2B-	.
1D	.	[1A	2d
.	.	.	2d
=18	=18-	=18	=18
2D	0F]	1A]	2f
2D	.	.	2f
2F	.	1A	1c
2F	.	.	.
=19	=19	=19	=19
0C	0r	1.G	2e
.	.	.	2e
.	.	.	2e
.	.	[2A	2e
=20	=20-	=20	=20
2D	0F	4A]	1A
.	.	4G	.
2D	.	4F	.
.	.	4E	.
2D	.	1F	2r
2D	.	.	2a
=21	=21	=21	=21
0AA	0c	1E	2a
.	.	.	2a
.	.	2r	2a
.	.	2e	2a
=22	=22-	=22	=22
0C	0c	2e	1g
.	.	2e	.
.	.	2e	2r
.	.	2e	[2g
=23	=23	=23	=23
*	*M2/1	*	*
*	*met(C.)	*	*
*	*rscale:1/2	*	*
!	!LO:N:vis=1.	!	!
1G	[y0d	1d	4g]
.	.	.	4a
.	.	.	1b-
2G	.	1r	.
[2B-	.	.	4a
.	.	.	4g
=24	=24-	=24	=24
2B-]	1d]yy	0r	2f
4A	.	.	2g
4G	.	.	.
!	!LO:N:vis=1.	!	!
2F	[y1d	.	1d
2G	.	.	.
=25	=25-	=25	=25
0D	0d]yy	1f	0r
.	.	2f	.
.	.	2f	.
=26	=26	=26	=26
*	*M2/1	*	*
*	*met(C|)	*	*
*	*rscale:1	*	*
1A	1.c	1.e	0r
2A	.	.	.
2A	4B-	2c	.
.	4A	.	.
=27	=27	=27	=27
2G	2B-	2d	0r
2.F	2A	1f	.
.	2F	.	.
8EL	.	.	.
8DJ	.	.	.
[2C	[2G	[2e	.
=28	=28	=28	=28
4C]	2G]	2e]	0r
4BB-	.	.	.
2AA	1A	4d	.
.	.	4c	.
1E	.	1B-	.
.	2G	.	.
=29	=29	=29	=29
*	*M2/1	*	*
*	*met(C)	*	*
*	*rscale:1/2	*	*
1.F	[0A	0A	1c
.	.	.	2c
4E	.	.	2d
4D	.	.	.
=30	=30-	=30	=30
1C	0A_	1r	1e
1D	.	1A	1f
=31	=31	=31	=31
1AA	0A_	1.c	2e
.	.	.	2e
1AA	.	.	1e
.	.	4d	.
.	.	4e	.
=32	=32-	=32	=32
1.D	0A]	1.f	1d
.	.	.	2d
2C	.	2e	2e
=33	=33	=33	=33
2D	0r	1d	1f
2F	.	.	.
1E	.	1c	1g
=34	=34-	=34	=34
1.D	0A	0d	1.f
4C	.	.	4e
4BB-	.	.	4d
=35	=35	=35	=35
2.AA	0A	1e	2.c
4BB-	.	.	4d
2C	.	2c	2e
[2D	.	2A	[2f
=36	=36-	=36	=36
2D]	0A	1d	2f]
4C	.	.	4e
4BB-	.	.	4d
1AA	.	1c	2e
.	.	.	2f
=37	=37	=37	=37
*	*M2/1	*	*
*	*met(C.)	*	*
!	!LO:N:vis=1.	!	!
1GG	[y0B-	1d	1g
2r	.	2G	1d
2GG	.	[2B-	.
=38	=38-	=38	=38
2.BB-	1B-]yy	4B-]	1g
.	.	4c	.
.	.	2.d	.
4C	.	.	.
!	!LO:N:vis=1.	!	!
1D	[y1A	.	1f
.	.	4e	.
.	.	[2f	.
=39	=39-	=39	=39
2D	0A]yy	4f]	2r
.	.	4e	.
2.F	.	1.c	2f
.	.	.	2f
4G	.	.	.
2A	.	.	2f
=40	=40	=40	=40
*	*M2/1	*	*
*	*met(C)	*	*
1B-	1G	2d	1g
.	.	2e	.
!	!LO:N:vis=2.	!	!
1c	[y1F	1f	[1a
=41	=41-	=41	=41
0F	2F]yy	1c	2a]
.	2E	.	2g
.	1D	1B-	[1f
=42	=42	=42	=42
0G	0C	0c	2f]
.	.	.	4e
.	.	.	4d
.	.	.	1e
=43	=43-	=43	=43
0F	0c	1A	1f
.	.	1r	2r
.	.	.	[2f
=44	=44	=44	=44
*	*M2/1	*	*
*	*met(O)	*	*
0r	1.B-	1.d	2f]
.	.	.	2f
.	.	.	2f
.	2A	2c	2f
=45	=45-	=45	=45
1r	1G	2d	1g
.	.	2e	.
!	!LO:N:vis=1	!	!
2D	[y1d	1f	1a
2D	.	.	.
=46	=46-	=46	=46
2BB-	1d]yy	2f	1b-
2BB-	.	2f	.
1C	[1c	2e	2g
.	.	2e	[2a
=47	=47	=47	=47
1F	2c]	1f	4a]
.	.	.	4g
.	2A	.	4f
.	.	.	4e
1G	1B-	2r	2d
.	.	[2d	2g
=48	=48-	=48	=48
1D	0F	2d]	2f
.	.	4c	4e
.	.	4B-	4d
1F	.	1A	2c
.	.	.	[2f
=49	=49-	=49	=49
0C	0G	1c	2f]
.	.	.	4e
.	.	.	4d
.	.	1c	1e
=50	=50	=50	=50
*	*M2/1	*	*
*	*met(C.)	*	*
1r	0F	0A	1f
[1F	.	.	2r
.	.	.	[2a
=51	=51-	=51	=51
1F]	1r	1.c	2a]
.	.	.	2a
!	!LO:N:vis=1.	!	!
1F	[y1F	.	2a
.	.	2c	2a
=52	=52-	=52	=52
1D	0F]yy	1d	2f
.	.	.	1a
1D	.	1A	.
.	.	.	4g
.	.	.	4f
=53	=53	=53	=53
!	!LO:N:vis=1.	!	!
2C	[y0G	2c	1e
2C	.	2c	.
2C	.	2c	1e
2C	.	2c	.
=54	=54-	=54	=54
1GG	1G]yy	2B-	1d
.	.	4A	.
.	.	4G	.
=-	=	=-	=-
*	*M2/1	*	*
*	*met(C)	*	*
2D	1A	[1F	2r
2D	.	.	[2d
=55	=55-	=55	=55
2D	1B-	1F]	2d]
2D	.	.	2d
=-	=	=	=
*	*M2/1	*	*
*	*met(C.)	*	*
!	!LO:N:vis=1	!	!
1C	[y1c	1G	1e
=56	=56-	=56	=56
1r	1c]yy	1G	0d
1GG	1B-	1G	.
=57	=57	=57	=57
*	*M2/1	*	*
*	*met(C)	*	*
2.AA	0c	0E	1.c
4BB-	.	.	.
[1C	.	.	.
.	.	.	4d
.	.	.	4e
=58	=58-	=58	=58
2C]	0d	0D	2f
4BB-	.	.	1f
4AA	.	.	.
1BB-	.	.	.
.	.	.	4e
.	.	.	4d
=59	=59	=59	=59
[0Cl	[0cl	[0Gl	[0el
=60	=60-	=60	=60
0C]	0c]	0G]	0e]
!!LO:LB:i:g=z
*	*rscale:1	*	*
=61||	=61||	=61||	=61||
*>B	*>B	*>B	*>B
*clefF4	*clefGv2	*clefGv2	*clefG2
*k[b-]	*k[b-]	*k[b-]	*k[b-]
*M2/1	*M2/1	*M2/1	*M2/1
*met(C|)	*met(C)	*met(C|)	*met(C|)
*	*rscale:1/2	*	*
!!section: Qui tollis
!!!OMD: Qui tollis
0r	0r	0r	1g
.	.	.	2g
.	.	.	2g
=62	=62-	=62	=62
0r	0r	0r	2f
.	.	.	2f
.	.	.	2f
.	.	.	2f
=63	=63	=63	=63
0r	0r	1c	1e
.	.	2c	[1a
.	.	2c	.
=64	=64-	=64	=64
0r	0r	2B-	2a]
.	.	2B-	4g
.	.	.	4f
.	.	2B-	1g
.	.	2B-	.
=65	=65	=65	=65
1F	0r	1A	0a
2F	.	[1d	.
2F	.	.	.
=66	=66-	=66	=66
2E	0r	2d]	0r
2E	.	4c	.
.	.	4B-	.
2E	.	1c	.
2E	.	.	.
=67	=67	=67	=67
0D	0r	1d	1r
.	.	2r	1f
.	.	2A	.
=68	=68-	=68	=68
0r	0r	2A	2f
.	.	2A	2f
.	.	1G	1g
=69	=69	=69	=69
0r	0r	2.A	2f
.	.	.	2.e
.	.	4G	.
.	.	4F	.
.	.	4E	4d
.	.	2D	[2d
=70	=70-	=70	=70
0r	0r	1E	2d]
.	.	.	2c#Xi
.	.	1D	[1d
=71	=71	=71	=71
2.D	0r	2r	1d]
.	.	2d	.
4E	.	.	.
2F	.	2d	1r
2G	.	2d	.
=72	=72-	=72	=72
2.A	0r	2.c	0r
4G	.	4B-	.
4F	.	4A	.
4E	.	4G	.
2F	.	[2F	.
=73	=73	=73	=73
2A	0r	2F]	0r
2B-	.	1f	.
1G	.	.	.
.	.	2e	.
=74	=74-	=74	=74
1F	0r	1.f	2r
.	.	.	1a
2r	.	.	.
[2C	.	2e	[2g
=75	=75	=75	=75
4C]	0r	1c	2g]
4D	.	.	.
2E	.	.	1cc
2F	.	1d	.
2G	.	.	2b-
=76	=76-	=76	=76
2A	0r	0c	2cc
1F	.	.	1a
4E	.	.	4g
4D	.	.	4f
=77	=77	=77	=77
2.A	[0c	2r	1e
.	.	1A	.
4G	.	.	.
2F	.	.	1f
4E	.	4G	.
4D	.	4F	.
=78	=78-	=78	=78
2.C	0c]	1E	1g
4BB-	.	.	.
1AA	.	1F	1a
=79	=79	=79	=79
1GG	0B-	0G	0d
1GG	.	.	.
=80	=80-	=80	=80
0G	0B-	1r	1d
.	.	1d	2d
.	.	.	2d
=81	=81	=81	=81
1D	[0A	2d	1f
.	.	2d	.
2D	.	1d	2f
2D	.	.	2f
=82	=82-	=82	=82
1D	0A]	2d	1f
.	.	2d	.
2D	.	1f	1f
2D	.	.	.
=83	=83	=83	=83
*	*M2/1	*	*
*	*met(C|)	*	*
*	*rscale:1	*	*
1F	1A	1f	1c
1F	1A	1c	4c
.	.	.	4d
.	.	.	4e
.	.	.	4f
=84	=84	=84	=84
2C	1G	1c	1g
2E	.	.	.
2D	2.A	2d	2f
2C	.	2A	[2e
.	4G	.	.
=85	=85	=85	=85
2D	4F	4B-	4e]
.	4E	2.G	4d
2BB-	2D	.	1d
1AA	1E	1A	.
.	.	.	2c#Xi
=86	=86	=86	=86
*	*M2/1	*	*
*	*met(C)	*	*
*	*rscale:1/2	*	*
2r	1.D	1.F	1d
1A	.	.	.
.	.	.	1r
2G	2E	2G	.
=87	=87-	=87	=87
2F	1F	2.A	2r
4E	.	.	1a
4D	.	4B-	.
1E	1G	1c	.
.	.	.	2g
=88	=88	=88	=88
1D	1.A	1F	2f
.	.	.	4e
.	.	.	4d
1C	.	1c	1e
.	2G	.	.
=89	=89-	=89	=89
2D	2F	2r	2d
2C	2E	2c	1g
1D	1F	2.A	.
.	.	.	2f
.	.	4B-	.
=90	=90	=90	=90
1C	1A	1c	1e
1BB-	1B-	1d	2d
.	.	.	[2g
=91	=91-	=91	=91
1C	0G	2c	2g]
.	.	1c	1f
2r	.	.	.
2G	.	2B-	2e
=92	=92	=92	=92
*	*M2/1	*	*
*	*met(C.)	*	*
2A	0F	1c	1f
2A	.	.	.
2A	.	1r	2r
2A	.	.	2a
=93	=93-	=93	=93
0D	1r	1d	2a
.	.	.	2a
!	!LO:N:vis=1	!	!
.	[y1f	2d	2a
.	.	2d	2a
=94	=94-	=94	=94
1r	1f]yy	2d	1d
.	.	2d	.
1C	1e	[1G	1r
=95	=95	=95	=95
!	!LO:N:vis=1.	!	!
2C	[y0c	1G]	0r
2C	.	.	.
2F	.	1r	.
2F	.	.	.
=96	=96-	=96	=96
2E	1c]yy	1G	1r
2E	.	.	.
!	!LO:N:vis=1.	!	!
1D	[y1d	1A	1f
=97	=97-	=97	=97
2r	0d]yy	1B-	2f
2BB-	.	.	2f
4BB-	.	2r	2b-
4C	.	.	.
4D	.	[2F	2b-
4E	.	.	.
=98	=98	=98	=98
*	*M2/1	*	*
*	*met(C)	*	*
!	!LO:N:vis=0	!	!
2F	[y0c	4F]	2a
.	.	4G	.
2F	.	4A	2a
.	.	4B-	.
2C	.	4c	2g
.	.	4d	.
2C	.	2e	2g
=99	=99-	=99	=99
0F	0c]yy	2c	2f
.	.	1f	2f
.	.	.	2a
.	.	2F	2a
=100	=100	=100	=100
*	*M2/1	*	*
*	*met(C|)	*	*
*	*rscale:1	*	*
1E	1c	1G	2g
.	.	.	2g
1D	1d	[1A	2f
.	.	.	[2a
=101	=101	=101	=101
2F	2c	1A]	4a]
.	.	.	4g
2F	2A	.	4f
.	.	.	4e
2G	4B-	1r	2d
.	4A	.	.
2G	4G	.	2d
.	4F	.	.
=102	=102	=102	=102
*	*M2/1	*	*
*	*met(O)	*	*
*	*rscale:1/2	*	*
1C	1E	1c	2g
.	.	.	2g
!	!LO:N:vis=1	!	!
1r	[y1F	2A	2c
.	.	2A	2c
=103	=103-	=103	=103
1D	1F]yy	2F	1f
.	.	2A	.
1E	1E	4G	2.g
.	.	4A	.
.	.	4B-	.
.	.	4c	4a
=104	=104-	=104	=104
0F	0D	2d	2b-
.	.	1c	1a
.	.	2B-	4g
.	.	.	4f
=105	=105	=105	=105
*	*M2/1	*	*
*	*met(C)	*	*
1G	0C	0c	1e
2r	.	.	2r
2G	.	.	2cc
=106	=106-	=106	=106
2.A	1.F	1r	2.cc
4G	.	.	4b-
2F	.	1c	2a
2E	2G	.	2g
=107	=107	=107	=107
1D	1.A	2d	1f
.	.	2d	.
1D	.	2d	2r
.	2B-	2d	2d
=108	=108-	=108	=108
2E	1c	1G	2g
2E	.	.	2g
1D	[1d	1A	1f
=109	=109	=109	=109
1BB-	1d]	2B-	1f
.	.	2B-	.
!	!LO:N:vis=2.	!	!
[1F	[y1c	2A	1a
.	.	2F	.
=110	=110-	=110	=110
1F]	2c]yy	1f	1a
.	2A	.	.
1G	1B-	2e-X	1g
.	.	[2d	.
=111	=111	=111	=111
1C	1c	4d]	2g
.	.	4c	.
.	.	1c	1a
1D	1F	.	.
.	.	2B-	4g
.	.	.	4f
=112	=112-	=112	=112
2C	0G	2c	2e
2BB-	.	2d	1f
1C	.	1c	.
.	.	.	2e
=113	=113	=113	=113
[0FFl	[0Fl	1.A	[0fl
.	.	4G	.
.	.	4F	.
=114	=114-	=114	=114
0FF]	0F]	0cl	0f]
*	*rscale:1	*	*
==	==	==	==
*-	*-	*-	*-
!!!RDF**kern: l=long note in original notation
!!!system-decoration: s1,s2,s3,s4
!!!RDF**kern: i = editorial accidental
!!!ENC:	Chris Gage 04-02-2014
!!!END:	2020/10/20
!!!EED:	Jesse Rodin
!!!EEV:	2021/06/07
!!attribution-level@Jos: 4b (almost certainly by another composer [double question mark])
!!!ONB:	Translated from MusicXML and edited on 2021/06/07 by Craig Sapp
!!muse2ps: T^@{OPR}^u^@{ONM}{. }@{OTL}^C^@{COA}?\n@{SCT}^i2I150v85,85,85,150z18c125
